modules/hawcons-filled/icons/icon-123-document-file-wav.svg

<?xml version="1.0" encoding="UTF-8" standalone="no"?>
<svg width="32px" height="32px" viewBox="0 0 32 32" version="1.1" xmlns="http://www.w3.org/2000/svg" xmlns:xlink="http://www.w3.org/1999/xlink" xmlns:sketch="http://www.bohemiancoding.com/sketch/ns">
    <!-- Generator: Sketch 3.0.3 (7891) - http://www.bohemiancoding.com/sketch -->
    <title>icon 123 document file wav</title>
    <desc>Created with Sketch.</desc>
    <defs></defs>
    <g id="Page-1" stroke="none" stroke-width="1" fill="none" fill-rule="evenodd" sketch:type="MSPage">
        <g id="icon-123-document-file-wav" sketch:type="MSArtboardGroup" fill="#929292">
            <path d="M21,26 L21,28.0025781 C21,29.1090746 20.1057238,30 19.0025781,30 L3.99742191,30 C2.89092539,30 2,29.1012878 2,27.9926701 L2,5.00732994 C2,3.89833832 2.8992496,3 4.0085302,3 L14,3 L14,9.00189865 C14,10.1132936 14.8980806,11 16.0059191,11 L21,11 L21,13 L12.0068483,13 C10.3462119,13 9,14.3422643 9,15.9987856 L9,23.0012144 C9,24.6573979 10.3359915,26 12.0068483,26 L21,26 L21,26 Z M15,3 L15,8.99707067 C15,9.55097324 15.4509752,10 15.990778,10 L21,10 L15,3 L15,3 Z M11.9945615,14 C10.8929956,14 10,14.9001762 10,15.992017 L10,23.007983 C10,24.1081436 10.9023438,25 11.9945615,25 L29.0054385,25 C30.1070044,25 31,24.0998238 31,23.007983 L31,15.992017 C31,14.8918564 30.0976562,14 29.0054385,14 L11.9945615,14 L11.9945615,14 Z M16.5,23 L16,23 L14.5,20 L13,23 L12.5,23 L12,23 L12,16 L13,16 L13,21 L14,19 L14.5,19 L15,19 L16,21 L16,16 L17,16 L17,23 L16.5,23 L16.5,23 Z M22,20 L19,20 L19,23 L18,23 L18,19.5 L18,18 C18,16.8877296 18.897616,16 20.0048815,16 L20.9951185,16 C22.1061002,16 23,16.8954305 23,18 L23,20 L23,23 L22,23 L22,20 L22,20 Z M19.9989566,17 C19.4472481,17 19,17.4438648 19,18 L19,19 L22,19 L22,18 C22,17.4477153 21.5573397,17 21.0010434,17 L19.9989566,17 L19.9989566,17 Z M26.5,21.25 L28,16 L29,16 L27,23 L26.5,23 L26,23 L24,16 L25,16 L26.5,21.25 L26.5,21.25 Z" id="document-file-wav" sketch:type="MSShapeGroup"></path>
        </g>
    </g>
</svg>

<svg width="32" height="32" xmlns="http://www.w3.org/2000/svg"><path d="M21 26v2.003A1.995 1.995 0 0 1 19.003 30H3.997A2 2 0 0 1 2 27.993V5.007C2 3.898 2.9 3 4.009 3H14v6.002c0 1.111.898 1.998 2.006 1.998H21v2h-8.993A3.003 3.003 0 0 0 9 15.999V23A2.996 2.996 0 0 0 12.007 26H21zM15 3v5.997c0 .554.451 1.003.99 1.003H21l-6-7zm-3.005 11C10.893 14 10 14.9 10 15.992v7.016A2 2 0 0 0 11.995 25h17.01C30.107 25 31 24.1 31 23.008v-7.016A2 2 0 0 0 29.005 14h-17.01zm4.505 9H16l-1.5-3-1.5 3h-1v-7h1v5l1-2h1l1 2v-5h1v7h-.5zm5.5-3h-3v3h-1v-5c0-1.112.898-2 2.005-2h.99A2 2 0 0 1 23 18v5h-1v-3zm-2.001-3A.997.997 0 0 0 19 18v1h3v-1c0-.552-.443-1-.999-1h-1.002zm6.501 4.25L28 16h1l-2 7h-1l-2-7h1l1.5 5.25z" fill="#929292" fill-rule="evenodd"/></svg>
